X:1
T:Kiss The Maid Behind The Barbeque
L:1/8
M:4/4
I:linebreak $
K:Bmin
V:1 treble 
V:1
 BffB cffc | BffB d2 cB | GABc dcBA | GABc dcBA | BffB cffc |$ BffB d2 cB | GABc dcBA | GABc defg | %8
 adcd bdcd | adcd g2 fg |$ adcd bdfa | bagf efgb | adcd bdcd | adcd g2 fg | adcd bdfa |$ %15
 gfed cdec | %16
